Papirus/32x32/apps/tuxedo-control-center.svg

<svg width="32" height="32" version="1.1" xmlns="http://www.w3.org/2000/svg">
 <rect x="2" y="2.9999998" width="27.999981" height="27.999981" rx="5.4687419" ry="5.4687419" style="opacity:.2"/>
 <rect x="2" y="2" width="27.999981" height="27.999981" rx="5.4687419" ry="5.4687419" style="fill:#4f4f4f"/>
 <path d="m18.7525 5c-2.298154 0-4.6383 0.84765-6.7525 1.93396-4.83247 2.48297-8 7.40065-8 12.81489 0 2.864029 0.96609 5.8815 2.4 8.2509h3.6c-1.68198-2.2066-3.06958-5.2585-3-8.1886 0.10587-4.4552 2.27448-8.2922 6.251-10.3354 1.7661-0.90741 3.6892-1.476 5.6062-1.476 2.3994 0 4.8907 0.67022 6.9512 2.0579 0.5285 0.321 1.1519 0.0897 1.2294 0.05886 0.4442-0.17681 0.9622-0.6372642 0.9622-1.11676 0-0.5731063-0.1274-1.05596-0.5284-1.31578-3.2467-2.18648-6.82617-2.68397-8.7191-2.68397z" style="opacity:.2"/>
 <path d="m18.7525 4.00025c-2.298154 0-4.6383 0.84765-6.7525 1.93396-4.83247 2.48297-8 7.40065-8 12.81489 0 2.864029 0.96609 5.8815 2.4 8.2509h3.6c-1.68198-2.2066-3.06958-5.2585-3-8.1886 0.10587-4.4552 2.27448-8.2922 6.251-10.3354 1.7661-0.90741 3.6892-1.476 5.6062-1.476 2.3994 0 4.8907 0.67022 6.9512 2.0579 0.5285 0.321 1.1519 0.0897 1.2294 0.05886 0.4442-0.17681 0.9622-0.6372642 0.9622-1.11676 0-0.5731063-0.1274-1.05596-0.5284-1.31578-3.2467-2.18648-6.82617-2.68397-8.7191-2.68397z" style="fill:#c2352a"/>
 <path d="m25.5952 12h-14.5952v2h11.8769l-2.5354 4.0157-2.0025-3.0155-2.938-4e-4 3.6193 5.0198-5.2201 7.9804h14.1998v-2h-11.3595l3.1476-4.7056 2.4299 3.7056h2.9464l-4.0353-5.6758z" style="opacity:.2"/>
 <path d="m25.5952 11h-14.5952v2h11.8769l-2.5354 4.0157-2.0025-3.0155-2.938-4e-4 3.6193 5.0198-5.2201 7.9804h14.1998v-2h-11.3595l3.1476-4.7056 2.4299 3.7056h2.9464l-4.0353-5.6758z" style="fill:#ececec"/>
 <path d="M 7.46875 2 C 4.43907 2 2 4.43907 2 7.46875 L 2 8.46875 C 2 5.43907 4.43907 3 7.46875 3 L 24.5312 3 C 27.5609 3 30 5.43907 30 8.46875 L 30 7.46875 C 30 4.43907 27.5609 2 24.5312 2 L 7.46875 2 Z" style="fill:#ffffff;opacity:.1"/>
 <path d="M 18.751953 4 C 16.453799 4 14.1142 4.8472837 12 5.9335938 C 7.16753 8.4165637 4 13.33576 4 18.75 C 4 18.909469 4.0038614 19.068233 4.0097656 19.228516 C 4.2050869 14.020853 7.3226458 9.3368638 12 6.9335938 C 14.1142 5.8472837 16.453799 5 18.751953 5 C 20.644883 5 24.224003 5.4971137 27.470703 7.6835938 C 27.701912 7.8334008 27.842603 8.0593832 27.919922 8.3320312 C 27.969774 8.2245439 28 8.1130753 28 8 C 28 7.4268937 27.871703 6.9434138 27.470703 6.6835938 C 24.224003 4.4971138 20.644883 4 18.751953 4 z M 7.015625 19.535156 C 7.011644 19.627222 7.0022007 19.717937 7 19.810547 C 6.940394 22.320629 7.9507199 24.919128 9.2988281 27 L 10 27 C 8.4562119 24.974695 7.164329 22.236897 7.015625 19.535156 z " style="fill:#ffffff;opacity:.2"/>
</svg>

<svg xmlns="http://www.w3.org/2000/svg" width="32" height="32" version="1.1">
 <rect style="opacity:0.2" width="28" height="28" x="2" y="3" rx="5.469" ry="5.469"/>
 <rect style="fill:#4f4f4f" width="28" height="28" x="2" y="2" rx="5.469" ry="5.469"/>
 <path style="opacity:0.1" d="M 18.753,5 C 16.454,5 14.114,5.8476 12,6.934 7.1675,9.4169 4,14.335 4,19.749 4,22.613 4.9661,25.63 6.4,28 H 10 C 8.318,25.793 6.9304,22.741 7,19.811 7.1059,15.356 9.2745,11.519 13.251,9.4757 15.017,8.5683 16.94,7.9997 18.857,7.9997 21.257,7.9997 23.748,8.67 25.808,10.058 26.337,10.379 26.96,10.147 27.038,10.117 27.482,9.9397 28,9.4792 28,8.9997 28,8.4266 27.873,7.9438 27.472,7.684 24.225,5.4975 20.645,5 18.753,5 Z"/>
 <path style="fill:#c2352a" d="M 18.753,4.0003 C 16.454,4.0003 14.114,4.8479 12,5.9342 7.1675,8.4172 4,13.335 4,18.749 4,21.613 4.9661,24.631 6.4,27 H 10 C 8.318,24.793 6.9304,21.742 7,18.811 7.1059,14.356 9.2745,10.519 13.251,8.476 15.017,7.5686 16.94,7 18.857,7 21.257,7 23.748,7.6702 25.808,9.0579 26.337,9.3789 26.96,9.1476 27.038,9.1168 27.482,8.9399 28,8.4795 28,8 28,7.4269 27.873,6.944 27.472,6.6842 24.225,4.4977 20.645,4.0002 18.753,4.0003 Z"/>
 <path style="opacity:0.1" d="M 25.595,12 H 11 V 14 H 22.877 L 20.341,18.016 18.339,15 H 15.401 L 19.02,20.02 13.8,28 H 28 V 26 H 16.64 L 19.788,21.294 22.218,25 H 25.164 L 21.129,19.324 Z"/>
 <path style="fill:#ececec" d="M 25.595,11 H 11 V 13 H 22.877 L 20.341,17.016 18.339,14 H 15.401 L 19.02,19.02 13.8,27 H 28 V 25 H 16.64 L 19.788,20.294 22.218,24 H 25.164 L 21.129,18.324 Z"/>
 <path style="opacity:0.1;fill:#ffffff" d="M 7.4687,2 C 4.4391,2 2,4.4391 2,7.4687 V 8.4687 C 2,5.4391 4.4391,3 7.4687,3 H 24.531 C 27.561,3 30,5.4391 30,8.4687 V 7.4687 C 30,4.4391 27.561,2 24.531,2 Z"/>
 <path style="opacity:0.2;fill:#ffffff" d="M 18.752,4 C 16.454,4 14.114,4.8473 12,5.9336 7.1675,8.4166 4,13.336 4,18.75 4,18.909 4.0039,19.068 4.0098,19.229 4.2051,14.021 7.3226,9.3369 12,6.9336 14.114,5.8473 16.454,5 18.752,5 20.645,5 24.224,5.4971 27.471,7.6836 27.702,7.8334 27.843,8.0594 27.92,8.332 27.97,8.2245 28,8.1131 28,8 28,7.4269 27.872,6.9434 27.471,6.6836 24.224,4.4971 20.645,4 18.752,4 Z M 7.0156,19.535 C 7.0116,19.627 7.0022,19.718 7,19.811 6.9404,22.321 7.9507,24.919 9.2988,27 H 10 C 8.4562,24.975 7.1643,22.237 7.0156,19.535 Z"/>
</svg>
